libs/ui/packages/crypto-icons/src/svg/RUB.svg

<svg width="24" height="24" viewBox="0 0 24 24" fill="none">
<path fill-rule="evenodd" clip-rule="evenodd" d="M7.5 11.4285H8.823V5.25H12.2333C12.8663 5.25 13.4438 5.32425 13.9658 5.47275C14.4878 5.62125 14.9348 5.84775 15.3075 6.15075C15.6803 6.45375 15.972 6.8385 16.1835 7.30275C16.3942 7.76775 16.5 8.32275 16.5 8.9685C16.5 9.61425 16.3875 10.176 16.1647 10.6537C15.954 11.1146 15.6417 11.5217 15.2512 11.8448C14.8502 12.1696 14.3877 12.4102 13.8915 12.552C13.3405 12.7111 12.7693 12.7894 12.1957 12.7845H10.3133V14.7405H13.3132V16.0192H10.3133V18.75H8.823V16.0192H7.5V14.7405H8.823V12.7845H7.5V11.4285ZM12.2325 11.4285C13.0897 11.4285 13.764 11.2253 14.2545 10.8188C14.745 10.4115 14.991 9.795 14.991 8.9685C14.991 8.14275 14.745 7.542 14.2545 7.16775C13.764 6.79275 13.0898 6.60525 12.2333 6.60525H10.3133V11.4285H12.2325Z" fill="#64D1FF"/>
</svg>

<svg width="24" height="24" viewBox="0 0 24 24" fill="none"><path fill="#64d1ff" fill-rule="evenodd" d="M7.5 11.429h1.323V5.25h3.41q.949 0 1.733.223.783.223 1.342.678.558.455.875 1.152t.317 1.666-.335 1.685c-.211.46-.523.868-.914 1.19a3.8 3.8 0 0 1-1.36.708 6 6 0 0 1-1.695.232h-1.883v1.957h3v1.278h-3v2.731h-1.49v-2.73H7.5v-1.28h1.323v-1.956H7.5zm4.733 0q1.286 0 2.021-.61.737-.611.737-1.85t-.736-1.801-2.022-.563h-1.92v4.823z" clip-rule="evenodd"/></svg>
